X:1
T:D minor Samuel Babcock, 1795
T:Charles Wesley, 1745                77. 77. 77.
T:Horeb
T:Transcribed from The Middlesex Harmony, 1795.
%%score [ 1 2 3 ]
L:1/8
Q:1/4=110
M:2/4
K:F
V:1 treble nm="Treble" snm="Tr."
V:2 treble-8 nm="Tenor" snm="T."
V:3 bass nm="Bass" snm="B."
V:1
 A2 A2 | A2 d2 | e2 fd | ^c3 z | d2 cB | A2 BG | A2 A2 | A4 | A2 A2 | A2 d2 | e2 fd | ^c3 z | %12
w: 1.~Hearts of|stone, re-|lent, re- *|lent,|Break by *|Je- sus' *|cross sub-|dued;|See his|bo- dy|man- gled, *|rent,|
 e2 e2 | A2 A2 | B2 G2 | A4 | z4 | c2 c2 | c2 f2 | f2 c2 | A4 | d2 d2 | c2 A2 | f2 ed | e4 | %25
w: Co- vered|with a|gore of|blood!||Sin- ful|soul, what|hast thou|done?|Mur- dered|God's e-|ter- nal *|Son!|
 e2 e2 | f2 d2 | gf ed | ^c4 | ^c2 e2 | fd cB | A2 A2 | A4 |] %33
w: Sin- ful|soul, what|hast * thou *|done?|Mur- dered|God's * e- *|ter- nal|Son!|
V:2
 A2 d2 | c2 A2 | G2 F>G | A3 z | B2 G2 | A2 d2 | ^c2 c2 | d4 | f2 d2 | c2 A2 | G2 F>G | A3 z | %12
w: 2.~Yes, our|sins have|done the *|deed,|Drove the|nails that|fix him|here,|Crowned with|thorns his|sa- cred *|head,|
 ^c2 c2 | A2 F2 | G2 B2 | A4 | z4 | G2 G2 | A2 F2 | A2 c2 | c4 | B2 G2 | A2 c2 | d2 cB | c4 | %25
w: Pierced him|with the|sol- dier's|spear;||Made his|soul a|sac- ri-|fice,|For a|sin- ful|world he *|dies.|
 G2 c2 | A2 F2 | d2 cB | A4 | A2 ^c2 | df ed | ^cA dc | d4 |] %33
w: Made his|soul a|sac- ri- *|fice,|For a|sin- * ful *|world * he *|dies.|
V:3
 D,2 D,2 | F,2 F,2 | E,2 D,2 | A,,3 z | D,2 E,2 | F,D, G,2 | A,2 A,,2 | D,4 | D,2 D,2 | F,2 F,2 | %10
w: 3.~Shall we|let him|die in|vain?|Still to|death * pur-|sue our|God?|O- pen|tear his|
 E,2 D,2 | A,3 z | A,2 A,2 | F,2 F,2 | E,2 E,2 | A,,4 | z4 | C,2 C,2 | F,2 F,2 | D,2 C,2 | F,4 | %21
w: wounds a-|gain,|Tram- ple|on his|pre- cious|blood?||No; with|all our|sins we|part,|
 G,2 G,2 | A,2 A,2 | B,2 G,2 | C4 | C,2 C,2 | D,2 F,2 | G,2 G,2 | A,4 | F,2 E,2 | D,2 G,2 | %31
w: Sa- vior,|take my|bro- ken|heart!|No; with|all our|sins we|part,|Sa- vior,|take my|
 A,2 A,,2 | %32
w: bro- ken|
"^______________________________________\nEdited by B. C. Johnston, 2016\n  1. Measures 4, 12, All Parts: quarter notes dotted, followed by eighth rests.\n  1. Measures 29, 30, \nTreble\n: C (2) changed to C#.\n  2. Meaasures 30, 32, Tenor: C (3) changed to C#." D,4 |] %33
w: heart!|

